X: 25986
T: Mayglass Fancy, The
R: reel
M: 4/4
K: Gmajor
|:ea^ga edBa|gB B/B/B GA B/^c/d|ea^ga edBe|dG B/c/d edcB|
AEcA e^def|gB c/B/A B2 cB|AEAB ceef|g z dc BedB:|
|:AE E/E/E EDCB,|A,E E/E/E EDB,E|DB,GB, DG G/G/G|Bdgf edcB|
AE =F/E/D EDCB,|A,E E/E/E EDB,E|DEGA B2 z d|eB B/B/B gBdB:|

